X:1
T:Chevy Chase 1
T:Flying Fame
Z:Jack Campin, http://www.campin.me.uk/
S:Northumbrian Minstrelsy
M:6/8
L:1/8
K:G
d|c2B A2D|F2G A2                 \
                B|c2d e2d|c3- c2
c|B2A B2c|ded A2                 \
                B|c2d B2A|G3- G2|]

